X: 0
T: The Salamanca
C: Trad
M: 4/4
L: 1/8
K: D
|:dB | "D"ADDD ADDD |  "D"Adcd    fedc | "Em"BEEE  BEEE  | "Em"gfed "A7"cdeg |
  "Bm"fBBA   BBBg    | "A7"fdec "G"dfag |  "D"fdec  "G"dBAG     | "A7"FGEF  "D"D2  :|
|: fg | "D"afdf "G"gbeg    |  "D"fdec "A"dcBc |  "D"Addc "Bm"defg     | "Em"afab "A7"a2fg |
  "D"aaaf "G"ggbg    |  "A"fdec "G"dfag |  "D"fdec  "G"dBAG     | "A7"FGEF  "D"D2  :|